public/images/right-arrow.svg

<svg xmlns="http://www.w3.org/2000/svg" style="isolation:isolate" viewBox="0 0 512 512" width="512" height="512"><defs><clipPath id="a"><path d="M0 0h512v512H0z"/></clipPath></defs><g clip-path="url(#a)"><path d="M430.255 275.314L269.13 436.454c-2.5 2.5-5.9 3.913-9.44 3.913H87.124c-11.893 0-17.854-14.377-9.44-22.776 49.278-49.325 161.513-161.606 161.513-161.606S126.947 143.734 77.684 94.409c-8.415-8.399-2.453-22.776 9.44-22.776h172.567c3.54 0 6.94 1.413 9.44 3.912l73.126 73.126 87.999 87.984c10.665 10.682 10.665 27.977-.001 38.659z" fill="#FFCE00"/><path d="M329.339 275.314l-161.125 161.14c-2.5 2.5-5.9 3.913-9.44 3.913h-71.65c-11.893 0-17.854-14.377-9.44-22.776 49.278-49.325 161.513-161.606 161.513-161.606S126.947 143.734 77.684 94.409c-8.415-8.399-2.453-22.776 9.44-22.776h71.651c3.54 0 6.94 1.413 9.44 3.912L329.34 236.654c10.665 10.683 10.665 27.978-.001 38.66z" fill="#FFA81E"/><path d="M329.339 275.314l-161.125 161.14c-2.5 2.5-5.9 3.913-9.44 3.913h-41.981c3.54 0 6.94-1.413 9.44-3.913l165.783-165.798c10.666-10.682 10.666-18.662 0-29.343L126.233 75.546c-2.5-2.5-5.9-3.912-9.44-3.912h41.981c3.54 0 6.94 1.413 9.44 3.912l161.125 161.109c10.666 10.682 10.666 27.977 0 38.659z" fill="#F90"/></g></svg>

<?xml version="1.0" standalone="no"?><!-- Generator: Gravit.io --><svg xmlns="http://www.w3.org/2000/svg" xmlns:xlink="http://www.w3.org/1999/xlink" style="isolation:isolate" viewBox="0 0 512 512" width="512" height="512"><defs><clipPath id="_clipPath_7brNgUJloggCEXIkE4hihu9XKXg02k5l"><rect width="512" height="512"/></clipPath></defs><g clip-path="url(#_clipPath_7brNgUJloggCEXIkE4hihu9XKXg02k5l)"><path d=" M 430.255 275.314 L 269.13 436.454 C 266.63 438.954 263.23 440.367 259.69 440.367 L 87.124 440.367 C 75.231 440.367 69.27 425.99 77.684 417.591 C 126.962 368.266 239.197 255.985 239.197 255.985 C 239.197 255.985 126.947 143.734 77.684 94.409 C 69.269 86.01 75.231 71.633 87.124 71.633 L 259.691 71.633 C 263.231 71.633 266.631 73.046 269.131 75.545 L 342.257 148.671 L 430.256 236.655 C 440.921 247.337 440.921 264.632 430.255 275.314 Z " fill="rgb(255,206,0)"/><path d=" M 329.339 275.314 L 168.214 436.454 C 165.714 438.954 162.314 440.367 158.774 440.367 L 87.124 440.367 C 75.231 440.367 69.27 425.99 77.684 417.591 C 126.962 368.266 239.197 255.985 239.197 255.985 C 239.197 255.985 126.947 143.734 77.684 94.409 C 69.269 86.01 75.231 71.633 87.124 71.633 L 158.775 71.633 C 162.315 71.633 165.715 73.046 168.215 75.545 L 329.34 236.654 C 340.005 247.337 340.005 264.632 329.339 275.314 Z " fill="rgb(255,168,30)"/><path d=" M 329.339 275.314 L 168.214 436.454 C 165.714 438.954 162.314 440.367 158.774 440.367 L 116.793 440.367 C 120.333 440.367 123.733 438.954 126.233 436.454 L 292.016 270.656 C 302.682 259.974 302.682 251.994 292.016 241.313 L 126.233 75.546 C 123.733 73.046 120.333 71.634 116.793 71.634 L 158.774 71.634 C 162.314 71.634 165.714 73.047 168.214 75.546 L 329.339 236.655 C 340.005 247.337 340.005 264.632 329.339 275.314 Z " fill="rgb(255,153,0)"/></g></svg>
